X:1
T:Title
%%score ( 1 2 ) ( 3 4 )
L:1/8
M:4/4
K:G
V:1 treble nm="Choir Aahs, ChrchOrg"
V:2 treble 
V:3 bass nm="Choir Aahs, ChrchOrg-2"
V:4 bass 
V:1
 [DB]2 [DB]2 [Dc]2 [Dd]2 | [Dd]2 [Dc]2 [DB]2 [DA]2 | [DG]2 [DG]2 [DA]2 [DB]2 | [DB]3 [DA] [DA]4 | %4
w: By~from~Beethoven,~1824;~arr.~Edward~Hodges * * *||||
 [DB]2 [DB]2 [Ec]2 [=Fd]2 | [=Fd]2 [Ec]2 [EB]2 [EA]2 | [DG]2 [DG]2 [FA]2 [GB]2 | [FA]3 [DG] [DG]4 | %8
w: ||||
 [DA]2 [DA]2 [DB]2 G2 | [FA]2 Bc [DB]2 [DG]2 | [FA]2 [GB][Fc] [FB]2 [^DA]2 | [EG]2 [^CA]2 D4 | %12
w: ||||
 [DB]2 [DB]2 [Ec]2 [=Fd]2 | [=Fd]2 [Ec]2 [EB]2 [EA]2 | [DG]2 [DG]2 [FA]2 [GB]2 | %15
w: |||
 [FA]3 [DG] [DG]4 |] %16
w: |
V:2
 x8 | x8 | x8 | x8 | x8 | x8 | x8 | x8 | x8 | z2 D2 z4 | x8 | x8 | x8 | x8 | x8 | x8 |] %16
V:3
 G,2 G,2 [G,A,]2 [G,B,]2 | [D,B,]2 [D,A,]2 [D,G,]2 [C,F,]2 | [B,,G,]2 [B,,G,]2 [A,,F,]2 [G,,G,]2 | %3
 [D,G,]3 [D,F,] [D,F,]4 | z4 z2 .A,2 | [C,B,]2 [C,C]2 [C,D]2 [C,C]2 | %6
 [D,B,]2 [D,B,]2 [D,C]2 [D,D]2 | [D,C]3 [G,B,] [G,B,]4 | [D,F,]2 [D,F,]2 [D,G,]2 [D,B,]2 | %9
 z2 .G,2 z4 | [D,D]2 B,A, [^D,B,]2 [B,,B,]2 | [E,B,]2 [A,,A,]2 [D,F,]4 | z4 z2 .A,2 | %13
 [C,B,]2 [C,C]2 [C,D]2 [C,C]2 | [D,B,]2 [D,B,]2 [D,C]2 [D,D]2 | [D,C]3 [G,B,] [G,B,]4 |] %16
V:4
 x8 | x8 | x8 | x8 | G,2 G,2 G,2 G,-[G,B,] | x8 | x8 | x8 | x8 | [D,D]2 D,-[D,A,] [D,G,]2 [D,B,]2 | %10
 z2 D,2 z4 | x8 | [G,,G,]2 G,2 G,2 G,-[G,B,] | x8 | x8 | x8 |] %16

